Hatter-kde-dark/actions/24/stroke-join-miter.svg

<?xml version="1.0" encoding="UTF-8"?>
<svg viewBox="0 0 24 24" xmlns="http://www.w3.org/2000/svg">
 <defs id="defs3051">
  <style id="current-color-scheme" type="text/css">.ColorScheme-Text {
        color:#dedede;
      }</style>
 </defs>
 <path class="ColorScheme-Text" d="m6 4v1 6 9h1 3v-1-8-3h4 3 1v-1-2-1h-1-10-1zm1 1h10v2h-3-4-1v1 3 8h-2v-8-6zm5 5v1 9h1 3v-1-5h1 1v-1-2-1h-1-1-2-2zm1 1h3 1v2h-1-1v1 5h-2v-8z" fill="currentColor"/>
</svg>

<svg xmlns="http://www.w3.org/2000/svg" viewBox="0 0 24 24">
  <defs id="defs3051">
    <style type="text/css" id="current-color-scheme">
      .ColorScheme-Text {
        color:#dedede;
      }
      </style>
  </defs>
 <path style="fill:currentColor;fill-opacity:1;stroke:none" 
     d="M 6 4 L 6 5 L 6 11 L 6 20 L 7 20 L 10 20 L 10 19 L 10 11 L 10 8 L 14 8 L 17 8 L 18 8 L 18 7 L 18 5 L 18 4 L 17 4 L 7 4 L 6 4 z M 7 5 L 17 5 L 17 7 L 14 7 L 10 7 L 9 7 L 9 8 L 9 11 L 9 19 L 7 19 L 7 11 L 7 5 z M 12 10 L 12 11 L 12 20 L 13 20 L 16 20 L 16 19 L 16 14 L 17 14 L 18 14 L 18 13 L 18 11 L 18 10 L 17 10 L 16 10 L 14 10 L 12 10 z M 13 11 L 16 11 L 17 11 L 17 13 L 16 13 L 15 13 L 15 14 L 15 19 L 13 19 L 13 11 z "
     class="ColorScheme-Text"
     />
</svg>
